T: Every Good Boy Does Fine
M: 6/8
L: 1/8
K: Edor
I have just realized that I play the 2 bar of the B part in a different way :  |BAB-B2E|    instead of  |EBA BE2| .EGB d2f|edB AGA|B2E-E2G|FAF D2B,|EGB d2f|edB AGA|B2E-E2G|FED G2F:|EBA B2E|BAB-B2E|def edB|ABd BAF|EBA B2E|BAB-B2E|def gfe|dGB AFD:|
